src/data/icons/withdrawal.svg

<?xml version="1.0" encoding="UTF-8"?>
<svg width="17px" height="19px" viewBox="0 0 17 19" version="1.1" xmlns="http://www.w3.org/2000/svg" xmlns:xlink="http://www.w3.org/1999/xlink">
    <title>Group 9 Copy</title>
    <g id="💰-06-Wallet" stroke="none" stroke-width="1" fill="none" fill-rule="evenodd">
        <g id="Group-9-Copy" fill-rule="nonzero">
            <g id="Group-3" fill="#0E0927">
                <polygon id="Path" points="0.92 3.29105951 1.4 3.64227902 1.4 3.64227902"></polygon>
                <polygon id="Path" points="2.76 0.897560976 2.28 0.546341463 2.28 0.546341463"></polygon>
                <polygon id="Path" points="11.24 0.897560976 10.76 1.24878049 10.76 1.24878049"></polygon>
                <polygon id="Path" points="13.08 3.29105951 13.56 2.93984 13.56 2.93984"></polygon>
                <path d="M6.82370865,9.75115259 C5.24888002,9.66213332 3.999984,8.38802899 3.999984,6.82929171 L3.999984,6.82929171 L4.00785306,6.73431959 C4.05435376,6.45618724 4.3017688,6.24390244 4.6,6.24390244 C4.93136,6.24390244 5.2,6.50598244 5.2,6.82926829 L5.2,6.82926829 C5.199984,7.79912585 6.005904,8.58538927 6.999984,8.58538927 C7.994064,8.58538927 8.799984,7.79912585 8.799984,6.82929171 L8.799984,6.82929171 C8.8,6.50598244 9.06864,6.24390244 9.4,6.24390244 C9.73136,6.24390244 10,6.50598244 10,6.82926829 L10,6.82926829 L9.9948914,7.00126766 C9.90364665,8.53768583 8.59768971,9.75612098 6.999984,9.75612098 L6.999984,9.75612098 Z" id="Combined-Shape"></path>
                <path d="M10.6,0 C10.99168,0 11.3630696,0.159930238 11.6264617,0.437023151 L11.72,0.546341463 L11.72,0.546341463 L13.56,2.93984 L13.308,3.123 L13.308,3.124 L13.56,2.93986341 C13.8099,3.26494341 13.95935,3.65154829 13.9928078,4.05423578 L14,4.22766829 L14,7 L14,7 C13.5909616,7 13.1901174,7.03508374 12.8003125,7.10240621 L12.8,4.292 L1.199,4.292 L1.2,13.8536351 L1.20672769,13.9674416 C1.26004897,14.4153478 1.62429438,14.7706878 2.08337827,14.8227051 L2.2,14.8292449 L7.04870246,14.8300771 C7.09612367,15.2314528 7.17750452,15.6224267 7.28989247,16.0000463 L2.2,15.9999766 L2.04288528,15.994611 C0.953083208,15.9195885 0.0824230907,15.0701764 0.00552382806,14.0069431 L0,13.8536585 L0,4.22764488 L0.00719185937,4.05423578 C0.0358687656,3.70907508 0.149761609,3.37573017 0.339093016,3.08281776 L0.44,2.93986341 L2.28,0.546341463 L3.24,1.24878049 L1.799,3.121 L12.199,3.121 L10.76,1.24878049 C10.7348267,1.21602602 10.7000889,1.19225583 10.6610726,1.18004842 L10.6,1.17073171 L3.4,1.17073171 L3.33893274,1.18004842 C3.31292306,1.18818669 3.28881337,1.20146398 3.26816985,1.21911628 L3.24,1.24878049 L2.28,0.546341463 C2.51502222,0.240626125 2.86898647,0.0467275158 3.25423609,0.0074131995 L3.4,0 L10.6,0 Z" id="Combined-Shape"></path>
            </g>
            <path d="M16,17.2419355 C16.2761424,17.2419355 16.5,17.4657931 16.5,17.7419355 C16.5,17.9873954 16.3231248,18.1915439 16.0898756,18.2338798 L16,18.2419355 L11,18.2419355 C10.7238576,18.2419355 10.5,18.0180779 10.5,17.7419355 C10.5,17.4964756 10.6768752,17.2923271 10.9101244,17.2499912 L11,17.2419355 L16,17.2419355 Z M13.4999996,9.5 C13.7454599,9.5 13.9496084,9.67687516 13.9919443,9.91012437 L13.9999996,10 L13.999,14.959 L15.6408799,13.2650056 C15.8330184,13.0666691 16.149561,13.0616446 16.3478976,13.2537831 C16.5241968,13.4245729 16.5477555,13.6936573 16.4158692,13.8906434 L16.3591201,13.9608008 L13.839203,16.5608954 L13.7671194,16.6163343 L13.6722278,16.663095 L13.5505136,16.6910014 L13.448153,16.6908928 L13.3808554,16.6792287 L13.2814062,16.6433446 L13.1959155,16.5904842 L13.1408799,16.541446 L10.6408799,13.9608008 C10.4487413,13.7624643 10.4537658,13.4459217 10.6521024,13.2537831 C10.8284016,13.0829933 11.0980981,13.0679866 11.2907992,13.2060584 L11.3591201,13.2650056 L12.999,14.957 L12.9999996,10 C12.9999996,9.72385763 13.2238576,9.5 13.4999996,9.5 Z" id="Shape" fill="#120E27"></path>
        </g>
    </g>
</svg>

<svg width="17" height="19" xmlns="http://www.w3.org/2000/svg"><g fill-rule="nonzero" fill="none"><g fill="#0E0927"><path d="M.92 3.291l.48.351zM2.76.898L2.28.546zM11.24.898l-.48.35zM13.08 3.291l.48-.351zM6.824 9.751C5.249 9.662 4 8.388 4 6.83l.008-.095a.596.596 0 01.592-.49c.331 0 .6.262.6.585 0 .97.806 1.756 1.8 1.756S8.8 7.8 8.8 6.83c0-.323.269-.585.6-.585.331 0 .6.262.6.585l-.005.172C9.904 8.538 8.598 9.756 7 9.756z"/><path d="M10.6 0c.392 0 .763.16 1.026.437l.094.11 1.84 2.393-.252.183v.001l.252-.184c.25.325.4.712.433 1.114l.007.174V7c-.409 0-.81.035-1.2.102v-2.81H1.199l.001 9.562.007.113a.988.988 0 00.876.856l.117.006 4.849.001c.047.401.129.792.24 1.17H2.2l-.157-.005C.953 15.92.083 15.07.006 14.007L0 13.854V4.228l.007-.174c.029-.345.143-.678.332-.971L.44 2.94 2.28.546l.96.703L1.799 3.12h10.4L10.76 1.249a.2.2 0 00-.099-.069l-.061-.01H3.4l-.061.01a.201.201 0 00-.07.04l-.029.029-.96-.703c.235-.305.589-.5.974-.539L3.4 0h7.2z"/></g><path d="M16 17.242a.5.5 0 01.09.992l-.09.008h-5a.5.5 0 01-.09-.992l.09-.008h5zM13.5 9.5a.5.5 0 01.492.41L14 10l-.001 4.959 1.642-1.694a.5.5 0 01.775.626l-.057.07-2.52 2.6-.072.055-.095.047-.121.028h-.103l-.067-.012-.1-.036-.085-.053-.055-.049-2.5-2.58a.5.5 0 01.65-.755l.068.059L13 14.957 13 10a.5.5 0 01.5-.5z" fill="#120E27"/></g></svg>
